pix_core/i/scheduled.svg

<svg preserveAspectRatio="xMinYMid meet" viewBox="0 0 448 512" xmlns="http://www.w3.org/2000/svg"><path d="m128 0c13.3 0 24 10.7 24 24v40h144v-40c0-13.3 10.7-24 24-24s24 10.7 24 24v40h40c35.3 0 64 28.7 64 64v16 48 256c0 35.3-28.7 64-64 64h-320c-35.3 0-64-28.7-64-64v-256-48-16c0-35.3 28.7-64 64-64h40v-40c0-13.3 10.7-24 24-24zm272 192h-352v256c0 8.8 7.2 16 16 16h320c8.8 0 16-7.2 16-16zm-71 105-112 112c-9.4 9.4-24.6 9.4-33.9 0l-64-64c-9.4-9.4-9.4-24.6 0-33.9s24.6-9.4 33.9 0l47 47 95-95c9.4-9.4 24.6-9.4 33.9 0s9.4 24.6 0 33.9z" fill="#fff"/></svg>

<svg xmlns="http://www.w3.org/2000/svg" viewBox="0 0 448 512" preserveAspectRatio="xMinYMid meet"><!--!Font Awesome Free 6.5.2 by @fontawesome - https://fontawesome.com License - https://fontawesome.com/license/free Copyright 2024 Fonticons, Inc.--><path fill="#fff" d="M128 0c13.3 0 24 10.7 24 24V64H296V24c0-13.3 10.7-24 24-24s24 10.7 24 24V64h40c35.3 0 64 28.7 64 64v16 48V448c0 35.3-28.7 64-64 64H64c-35.3 0-64-28.7-64-64V192 144 128C0 92.7 28.7 64 64 64h40V24c0-13.3 10.7-24 24-24zM400 192H48V448c0 8.8 7.2 16 16 16H384c8.8 0 16-7.2 16-16V192zM329 297L217 409c-9.4 9.4-24.6 9.4-33.9 0l-64-64c-9.4-9.4-9.4-24.6 0-33.9s24.6-9.4 33.9 0l47 47 95-95c9.4-9.4 24.6-9.4 33.9 0s9.4 24.6 0 33.9z"/></svg>
